dest/img/img-trust-28.svg

<svg fill="none" height="28" viewBox="0 0 173 28" width="173" xmlns="http://www.w3.org/2000/svg"><g fill="#576472"><path d="m14.6983 18.9867-1.8826-6.2304-4.12708 4.2642-1.59292-5.3777 10.8366-11.2053c-12.62259 0-17.039306 5.87511-15.83255 10.7789l2.38937 9.2155c1.25502 4.3351-3.25823 6.5857-4.48912 7.1069 2.38937.071 4.24777-.0474 5.91309-.5686 3.18584-.8765 5.28561-3.0323 8.78521-7.9835z"/><path d="m26.6692 7.56813c-1.2551-4.33525 3.2582-6.585798 4.4892-7.10698-2.3895-.07107-4.2478.04738-5.9132.56856-3.2099.87653-5.3097 3.03232-8.8092 7.98355l1.8824 6.23044 4.1271-4.2642 1.5929 5.3776-10.8366 11.1817c12.6226 0 17.0394-5.8751 15.8327-10.779z" opacity=".64"/><path d="m42.0192 8.72906v5.33024h7.8197v1.8715h-7.8197v6.183h-2.2205v-15.27994h11.0056v1.8952z"/><path d="m52.9283 7.92345c0-.75807.6275-1.37401 1.4481-1.37401s1.4481.59224 1.4481 1.32663c0 .78177-.6033 1.39767-1.4481 1.39767-.8206 0-1.4481-.59221-1.4481-1.35029zm.362 2.62965h2.1481v11.5844h-2.1481z"/><path d="m65.7439 10.4347v2.0373c-.1689-.0237-.3378-.0237-.4826-.0237-2.2929 0-3.7168 1.374-3.7168 3.9089v5.7804h-2.1481v-11.5844h2.0515v1.9426c.7723-1.3741 2.2205-2.0611 4.296-2.0611z"/><path d="m78.4873 17.0442h-9.5816c.2656 2.0373 1.9308 3.3876 4.2719 3.3876 1.3757 0 2.5342-.4501 3.403-1.3977l1.1827 1.3504c-1.0619 1.2318-2.7031 1.8714-4.658 1.8714-3.8134 0-6.3476-2.4637-6.3476-5.9224 0-3.4351 2.5101-5.8988 5.9131-5.8988 3.4031 0 5.8407 2.4164 5.8407 5.9699.0241.1658 0 .4263-.0242.6396zm-9.5816-1.5161h7.5784c-.2172-1.9426-1.7136-3.3166-3.7892-3.3166-2.0515 0-3.5478 1.3503-3.7892 3.3166z"/><path d="m95.5021 6.83386v15.30374h-3.5954v-6.2779h-7.072v6.2779h-3.6202v-15.30374h3.6202v6.04094h7.072v-6.04094z"/><path d="m110.756 10.3635-5.406 12.4846c-1.159 2.8428-2.8 3.6957-4.972 3.6957-1.2315 0-2.5587-.4028-3.3311-1.0661l1.2791-2.4163c.5313.4501 1.2792.7343 1.955.7343.966 0 1.496-.4263 1.955-1.4687l.048-.1185-5.1882-11.845h3.5952l3.331 7.9835 3.379-7.9835z"/><path d="m123.934 5.90991v16.22759h-3.331v-1.3503c-.869 1.0187-2.148 1.5399-3.741 1.5399-3.379 0-5.986-2.369-5.986-6.0647 0-3.6956 2.607-6.0646 5.986-6.0646 1.473 0 2.727.4501 3.596 1.4214v-5.70929zm-3.404 10.32879c0-2.0373-1.327-3.2692-3.04-3.2692-1.738 0-3.065 1.2319-3.065 3.2692 0 2.0374 1.327 3.2693 3.065 3.2693 1.689 0 3.04-1.2319 3.04-3.2693z"/><path d="m134.48 10.1976v3.1508c-.289-.0237-.506-.0473-.772-.0473-1.906 0-3.186 1.0187-3.186 3.2692v5.5434h-3.475v-11.7502h3.33v1.5636c.822-1.1372 2.245-1.7295 4.103-1.7295z"/><path d="m146.958 15.4095v6.7042h-3.258v-1.4688c-.652 1.0661-1.882 1.6346-3.644 1.6346-2.8 0-4.465-1.5398-4.465-3.5534 0-2.0847 1.496-3.5298 5.14-3.5298h2.752c0-1.4688-.893-2.3216-2.752-2.3216-1.279 0-2.582.4264-3.451 1.0897l-1.255-2.3927c1.304-.9239 3.258-1.4214 5.165-1.4214 3.669.0474 5.768 1.7057 5.768 5.2592zm-3.475 3.0086v-1.2082h-2.389c-1.618 0-2.149.5922-2.149 1.3741 0 .8527.725 1.4213 1.956 1.4213 1.182 0 2.196-.5211 2.582-1.5872z"/><path d="m162.26 15.3858v6.728h-3.476v-6.1831c0-1.8953-.893-2.7718-2.437-2.7718-1.666 0-2.872.995-2.872 3.1744v5.8041h-3.475v-11.7739h3.33v1.374c.941-.995 2.341-1.5635 3.958-1.5635 2.823.0237 4.972 1.6346 4.972 5.2118z"/><path d="m173 21.5689c-.724.4975-1.761.7344-2.824.7344-2.824 0-4.489-1.4214-4.489-4.2168v-4.8327h-1.859v-2.6297h1.859v-2.86641h3.5v2.86641h2.993v2.6297h-2.993v4.7853c0 .995.555 1.5636 1.496 1.5636.507 0 1.013-.1422 1.4-.4265z"/></g></svg>

<svg width="173" height="28" viewBox="0 0 173 28" fill="none" xmlns="http://www.w3.org/2000/svg">
<path d="M14.6983 18.9867L12.8157 12.7563L8.68862 17.0205L7.0957 11.6428L17.9323 0.4375C5.30971 0.4375 0.892994 6.31261 2.09975 11.2164L4.48912 20.4319C5.74414 24.767 1.23089 27.0176 0 27.5388C2.38937 27.6098 4.24777 27.4914 5.91309 26.9702C9.09893 26.0937 11.1987 23.9379 14.6983 18.9867Z" fill="#576472"/>
<g opacity="0.8">
<path opacity="0.8" d="M26.6692 7.56813C25.4141 3.23288 29.9274 0.982332 31.1584 0.46115C28.7689 0.39008 26.9106 0.50853 25.2452 1.02971C22.0353 1.90624 19.9355 4.06203 16.436 9.01326L18.3184 15.2437L22.4455 10.9795L24.0384 16.3571L13.2018 27.5388C25.8244 27.5388 30.2412 21.6637 29.0345 16.7598L26.6692 7.56813Z" fill="#576472"/>
</g>
<path d="M42.0192 8.72906V14.0593H49.8389V15.9308H42.0192V22.1138H39.7987V6.83386H50.8043V8.72906H42.0192Z" fill="#576472"/>
<path d="M52.9283 7.92345C52.9283 7.16538 53.5558 6.54944 54.3764 6.54944C55.197 6.54944 55.8245 7.14168 55.8245 7.87607C55.8245 8.65784 55.2212 9.27374 54.3764 9.27374C53.5558 9.27374 52.9283 8.68153 52.9283 7.92345ZM53.2903 10.5531H55.4384V22.1375H53.2903V10.5531Z" fill="#576472"/>
<path d="M65.7439 10.4347V12.472C65.575 12.4483 65.4061 12.4483 65.2613 12.4483C62.9684 12.4483 61.5445 13.8223 61.5445 16.3572V22.1376H59.3964V10.5532H61.4479V12.4958C62.2202 11.1217 63.6684 10.4347 65.7439 10.4347Z" fill="#576472"/>
<path d="M78.4873 17.0442H68.9057C69.1713 19.0815 70.8365 20.4318 73.1776 20.4318C74.5533 20.4318 75.7118 19.9817 76.5806 19.0341L77.7633 20.3845C76.7014 21.6163 75.0602 22.2559 73.1053 22.2559C69.2919 22.2559 66.7577 19.7922 66.7577 16.3335C66.7577 12.8984 69.2678 10.4347 72.6708 10.4347C76.0739 10.4347 78.5115 12.8511 78.5115 16.4046C78.5356 16.5704 78.5115 16.8309 78.4873 17.0442ZM68.9057 15.5281H76.4841C76.2669 13.5855 74.7705 12.2115 72.6949 12.2115C70.6434 12.2115 69.1471 13.5618 68.9057 15.5281Z" fill="#576472"/>
<path d="M95.5021 6.83386V22.1376H91.9067V15.8597H84.8347V22.1376H81.2145V6.83386H84.8347V12.8748H91.9067V6.83386H95.5021Z" fill="#576472"/>
<path d="M110.756 10.3635L105.35 22.8481C104.191 25.6909 102.55 26.5438 100.378 26.5438C99.1465 26.5438 97.8193 26.141 97.0469 25.4777L98.326 23.0614C98.8573 23.5115 99.6052 23.7957 100.281 23.7957C101.247 23.7957 101.777 23.3694 102.236 22.327L102.284 22.2085L97.0958 10.3635H100.691L104.022 18.347L107.401 10.3635H110.756Z" fill="#576472"/>
<path d="M123.934 5.90991V22.1375H120.603V20.7872C119.734 21.8059 118.455 22.3271 116.862 22.3271C113.483 22.3271 110.876 19.9581 110.876 16.2624C110.876 12.5668 113.483 10.1978 116.862 10.1978C118.335 10.1978 119.589 10.6479 120.458 11.6192V5.90991H123.934ZM120.53 16.2387C120.53 14.2014 119.203 12.9695 117.49 12.9695C115.752 12.9695 114.425 14.2014 114.425 16.2387C114.425 18.2761 115.752 19.508 117.49 19.508C119.179 19.508 120.53 18.2761 120.53 16.2387Z" fill="#576472"/>
<path d="M134.48 10.1976V13.3484C134.191 13.3247 133.974 13.3011 133.708 13.3011C131.802 13.3011 130.522 14.3198 130.522 16.5703V22.1137H127.047V10.3635H130.377V11.9271C131.199 10.7899 132.622 10.1976 134.48 10.1976Z" fill="#576472"/>
<path d="M146.958 15.4095V22.1137H143.7V20.6449C143.048 21.711 141.818 22.2795 140.056 22.2795C137.256 22.2795 135.591 20.7397 135.591 18.7261C135.591 16.6414 137.087 15.1963 140.731 15.1963H143.483C143.483 13.7275 142.59 12.8747 140.731 12.8747C139.452 12.8747 138.149 13.3011 137.28 13.9644L136.025 11.5717C137.329 10.6478 139.283 10.1503 141.19 10.1503C144.859 10.1977 146.958 11.856 146.958 15.4095ZM143.483 18.4181V17.2099H141.094C139.476 17.2099 138.945 17.8021 138.945 18.584C138.945 19.4367 139.67 20.0053 140.901 20.0053C142.083 20.0053 143.097 19.4842 143.483 18.4181Z" fill="#576472"/>
<path d="M162.26 15.3858V22.1138H158.784V15.9307C158.784 14.0354 157.891 13.1589 156.347 13.1589C154.681 13.1589 153.475 14.1539 153.475 16.3333V22.1374H150V10.3635H153.33V11.7375C154.271 10.7425 155.671 10.174 157.288 10.174C160.111 10.1977 162.26 11.8086 162.26 15.3858Z" fill="#576472"/>
<path d="M173 21.5689C172.276 22.0664 171.239 22.3033 170.176 22.3033C167.352 22.3033 165.687 20.8819 165.687 18.0865V13.2538H163.828V10.6241H165.687V7.75769H169.187V10.6241H172.18V13.2538H169.187V18.0391C169.187 19.0341 169.742 19.6027 170.683 19.6027C171.19 19.6027 171.696 19.4605 172.083 19.1762L173 21.5689Z" fill="#576472"/>
</svg>
